build/category/CreateForkOutline.svg

<svg xmlns="http://www.w3.org/2000/svg" fill="none" viewBox="0 0 24 24" focusable="false"><path d="M0 0H24V24H0z"/><path fill="#74767B" fill-rule="evenodd" d="M18.6545 3.63792C18.6545 3.27893 18.3635 2.98792 18.0045 2.98792C17.6455 2.98792 17.3545 3.27893 17.3545 3.63792L17.3545 5.3499L15.6425 5.3499C15.2835 5.3499 14.9925 5.64091 14.9925 5.9999C14.9925 6.35889 15.2835 6.6499 15.6425 6.6499L17.3545 6.6499L17.3545 8.36189C17.3545 8.72087 17.6455 9.01188 18.0045 9.01188C18.3635 9.01188 18.6545 8.72087 18.6545 8.36189L18.6545 6.6499L20.3665 6.6499C20.7255 6.6499 21.0165 6.35889 21.0165 5.9999C21.0165 5.64092 20.7255 5.3499 20.3665 5.3499L18.6545 5.3499L18.6545 3.63792ZM12.6723 6.65385C11.3744 6.65385 10.3223 7.70598 10.3223 9.00385L10.3223 11.9927L10.3225 12.0071L10.3223 12.0216L10.3223 15.0104C10.3223 16.3083 11.3744 17.3604 12.6723 17.3604L18.7319 17.3604L17.1439 15.8469C16.8841 15.5992 16.8742 15.1878 17.1219 14.9279C17.3695 14.6681 17.781 14.6582 18.0408 14.9059L21.2962 18.0086L18.0365 21.059C17.7744 21.3043 17.3631 21.2906 17.1178 21.0285C16.8725 20.7664 16.8861 20.3551 17.1483 20.1098L18.6971 18.6604L12.6723 18.6604C10.6565 18.6604 9.0223 17.0263 9.0223 15.0104L9.0223 12.6571L3.64414 12.6571C3.28516 12.6571 2.99414 12.3661 2.99414 12.0071C2.99414 11.6482 3.28516 11.3571 3.64414 11.3571L9.0223 11.3571L9.0223 9.00385C9.0223 6.98801 10.6565 5.35385 12.6723 5.35385L13.0974 5.35385C13.4564 5.35385 13.7474 5.64487 13.7474 6.00385C13.7474 6.36284 13.4564 6.65385 13.0974 6.65385L12.6723 6.65385Z"/></svg>

<svg xmlns="http://www.w3.org/2000/svg" fill="none" viewBox="0 0 24 24" focusable="false"><path fill="#74767B" fill-rule="evenodd" d="M18 2.98c.36 0 .65.29.65.65v1.71h1.71c.36 0 .65.3.65.65 0 .36-.29.65-.65.65h-1.71v1.72c0 .36-.29.65-.65.65s-.65-.29-.65-.65V6.64h-1.71c-.36 0-.65-.29-.65-.65 0-.35.29-.65.65-.65h1.71V3.63c0-.36.29-.65.65-.65m-5.33 3.67c-1.3 0-2.35 1.05-2.35 2.35v6.01c0 1.29 1.05 2.35 2.35 2.35h6.06l-1.59-1.52a.65.65 0 0 1-.02-.92c.24-.26.66-.27.92-.02l3.25 3.1-3.26 3.05a.64.64 0 0 1-.92-.03.66.66 0 0 1 .03-.92l1.55-1.44h-6.02c-2.02 0-3.65-1.64-3.65-3.65v-2.36H3.64c-.36 0-.65-.29-.65-.65s.29-.65.65-.65h5.38V9c0-2.02 1.63-3.65 3.65-3.65h.42c.36 0 .65.29.65.65s-.29.65-.65.65z"/></svg>
